assets/Water.sentence.svg

<svg height="53" viewBox="0 0 462 53" width="462" xmlns="http://www.w3.org/2000/svg"><g fill="none" fill-rule="evenodd" transform="translate(1)"><g fill-rule="nonzero" stroke-linecap="round" stroke-linejoin="round"><path d="m0 52h460" stroke="#fbf5f0" stroke-width="2"/><path d="m0 52h245" stroke="#fbf5f0" stroke-width="1.5"/><path d="m28 52h82.965704 9.677082 2.322918v-5" stroke="#3a3939" stroke-width="2"/><path d="m216.599165-35.5991651v168.1983301 2h-5" stroke="#3a3939" stroke-width="2" transform="matrix(0 1 -1 0 263.599165 -164.599165)"/></g><g transform="translate(124)"><path d="m11 6.10853731c-.6571171-.73814925-1.56396396-1.10853731-2.58558559-1.10853731h-.36324324c-2.23369369 0-4.05117117 1.89265672-4.05117117 4.21743284v35.84226866 3.9402985" stroke="#3a3939" stroke-linecap="round" stroke-width="2"/><path d="m0 49v-39.83210959c0-4.50279452 3.62183236-8.16789041 8.07277453-8.16789041h.374269c1.41038253 0 3.13066747.53972939 4.52966367 1.50739394" stroke="#3a3939" stroke-linecap="round" stroke-width="2"/><g transform="translate(11 2)"><path d="m9.96875 2.9128c-2.2-2.13333333-5.797-2.13333333-7.995625 0-2.2 2.13333333-2.2 5.62133333 0 7.7533333l1.247125 1.212"/><path d="m9.645625 1.6c-2.2-2.13333333-5.797-2.13333333-7.995625 0-2.2 2.13333333-2.2 5.62133333 0 7.75333333l.77391231 1.00053337" stroke="#3a3939" stroke-width="2"/></g><g transform="translate(36 9)"><path d="m.375 1 1.5 1" fill="#010101"/><path d="m.375 1 1.5 1" stroke="#3a3939" stroke-linecap="round" stroke-width="1.5" transform="matrix(.98480775 .17364818 -.17364818 .98480775 .277564 -.172566)"/></g><g transform="matrix(.99862953 -.05233596 .05233596 .99862953 40.007272 13.530192)"><path d="m.33333333 0 2.66666667 3" fill="#010101"/><path d="m.33333333 0 2.66666667 3" stroke="#3a3939" stroke-linecap="round" stroke-width="1.5"/></g><g transform="matrix(.99939083 -.0348995 .0348995 .99939083 45.609297 19.183761)"><path d="m.33333333 0 2.66666667 3" fill="#010101"/><path d="m.33333333 0 2.66666667 3" stroke="#3a3939" stroke-linecap="round" stroke-width="1.5"/></g><path d="m0 0 2.13146258 2.51684058" stroke="#3a3939" stroke-linecap="round" stroke-width="1.5" transform="matrix(.99939083 -.0348995 .0348995 .99939083 32.91397 15.071322)"/><g transform="translate(38 21)"><path d="m1 1 2 2" fill="#010101"/><path d="m.03865276.03421418 2 2.25" stroke="#3a3939" stroke-linecap="round" stroke-width="1.5" transform="matrix(.99939083 -.0348995 .0348995 .99939083 -.039823 .036955)"/></g><g transform="translate(25 17)"><path d="m.8364.4614 1.038 1.038" fill="#010101"/><path d="m2 1 1.038 1.038" stroke="#3a3939" stroke-linecap="round" stroke-width="1.5"/></g><g transform="translate(31 22)"><path d="m.375 1 2.25 2.25" fill="#010101"/><path d="m0 0 2.25 2.25" stroke="#3a3939" stroke-linecap="round" stroke-width="1.5"/></g><g transform="translate(37 28)"><path d="m.03125.65625 1.5 1.5" fill="#010101"/><path d="m0 0 1.5 1.5" stroke="#3a3939" stroke-linecap="round" stroke-width="1.5"/></g><g transform="translate(23 23)"><path d="m.33333333 0 2.66666667 3" fill="#010101"/><path d="m.33333333 0 2.66666667 3" stroke="#3a3939" stroke-linecap="round" stroke-width="1.5"/></g><g transform="translate(29 29)"><path d="m.33333333 0 2.66666667 3" fill="#010101"/><path d="m.33333333 0 1.33333334 1.5" stroke="#3a3939" stroke-linecap="round" stroke-width="1.5"/></g><g transform="translate(33 33)"><path d="m2.33333333 1 2.66666667 3" fill="#010101"/><path d="m.5.5 3 3" stroke="#3a3939" stroke-linecap="round" stroke-width="1.5"/></g><g transform="translate(19 27)"><path d="m.9126.0279 1.1595 1.284" fill="#010101"/><path d="m.9126.0279 1.1595 1.284" stroke="#3a3939" stroke-linecap="round" stroke-width="1.5"/></g><g transform="translate(23 31)"><path d="m.36853333.21825 2.52666667 2.62625" fill="#010101"/><path d="m.36853333.21825 2.52666667 2.62625" stroke="#3a3939" stroke-linecap="round" stroke-width="1.5"/></g><g transform="translate(29 37)"><path d="m.0996.2622 1.4205 1.575" fill="#010101"/><path d="m.0996.2622 1.4205 1.575" stroke="#3a3939" stroke-linecap="round" stroke-width="1.5"/></g><path d="m37.51226 7.85846295c-5.7651729-5.99772792-14.9280109-6.51314728-20.4707334-1.15172317-5.5427226 5.36009572-5.3613196 14.56723902.4025293 20.56363852z" stroke="#3a3939" stroke-linecap="round" stroke-linejoin="round" stroke-width="2" transform="matrix(.9998477 -.01745241 .01745241 .9998477 -.260299 .443085)"/></g></g></svg>

<?xml version="1.0" encoding="UTF-8"?>
<svg width="462px" height="53px" viewBox="0 0 462 53" version="1.1" xmlns="http://www.w3.org/2000/svg" xmlns:xlink="http://www.w3.org/1999/xlink">
    <!-- Generator: Sketch 52.4 (67378) - http://www.bohemiancoding.com/sketch -->
    <title>Group 2</title>
    <desc>Created with Sketch.</desc>
    <g id="Green_diet_v3" stroke="none" stroke-width="1" fill="none" fill-rule="evenodd">
        <g id="Desktop_1400" transform="translate(-281.000000, -2322.000000)">
            <g id="Group-2" transform="translate(282.000000, 2322.000000)">
                <path d="M0,52 L460,52" id="Path-4" stroke="#FBF5F0" stroke-width="2" stroke-linecap="round" stroke-linejoin="round" fill-rule="nonzero"></path>
                <path d="M0,52 L245,52" id="Path-4" stroke="#FBF5F0" stroke-width="1.5" stroke-linecap="round" stroke-linejoin="round" fill-rule="nonzero"></path>
                <polyline id="Path-4" stroke="#3A3939" stroke-width="2" stroke-linecap="round" stroke-linejoin="round" fill-rule="nonzero" points="28 52 110.965704 52 120.642786 52 122.965704 52 122.965704 47"></polyline>
                <polyline id="Path-7" stroke="#3A3939" stroke-width="2" stroke-linecap="round" stroke-linejoin="round" fill-rule="nonzero" transform="translate(214.099165, 49.500000) rotate(-270.000000) translate(-214.099165, -49.500000) " points="216.599165 -35.5991651 216.599165 132.599165 216.599165 134.599165 211.599165 134.599165"></polyline>
                <g id="Group-73" transform="translate(124.000000, 0.000000)">
                    <path d="M11,6.10853731 C10.3428829,5.37038806 9.43603604,5 8.41441441,5 L8.05117117,5 C5.81747748,5 4,6.89265672 4,9.21743284 L4,45.0597015 L4,49" id="Stroke-1" stroke="#3A3939" stroke-width="2" stroke-linecap="round"></path>
                    <path d="M0,49 L0,9.16789041 C0,4.66509589 3.62183236,1 8.07277453,1 L8.44704353,1 C9.85742606,1 11.577711,1.53972939 12.9767072,2.50739394" id="Stroke-3" stroke="#3A3939" stroke-width="2" stroke-linecap="round"></path>
                    <g id="Group-8" transform="translate(11.000000, 2.000000)">
                        <path d="M9.96875,2.9128 C7.76875,0.779466667 4.17175,0.779466667 1.973125,2.9128 C-0.226875,5.04613333 -0.226875,8.53413333 1.973125,10.6661333 L3.22025,11.8781333" id="Fill-5"></path>
                        <path d="M9.645625,1.6 C7.445625,-0.533333333 3.848625,-0.533333333 1.65,1.6 C-0.55,3.73333333 -0.55,7.22133333 1.65,9.35333333 L2.42391231,10.3538667" id="Stroke-7" stroke="#3A3939" stroke-width="2"></path>
                    </g>
                    <g id="Group-16" transform="translate(36.000000, 9.000000)">
                        <path d="M0.375,1 L1.875,2" id="Fill-13" fill="#010101"></path>
                        <path d="M0.375,1 L1.875,2" id="Stroke-15" stroke="#3A3939" stroke-width="1.5" stroke-linecap="round" transform="translate(1.125000, 1.500000) rotate(10.000000) translate(-1.125000, -1.500000) "></path>
                    </g>
                    <g id="Group-20" transform="translate(42.083035, 14.923464) rotate(-3.000000) translate(-42.083035, -14.923464) translate(40.083035, 13.423464)">
                        <path d="M0.333333333,0 L3,3" id="Fill-17" fill="#010101"></path>
                        <path d="M0.333333333,0 L3,3" id="Stroke-19" stroke="#3A3939" stroke-width="1.5" stroke-linecap="round"></path>
                    </g>
                    <g id="Group-24" transform="translate(47.660428, 20.613048) rotate(-2.000000) translate(-47.660428, -20.613048) translate(45.660428, 19.113048)">
                        <path d="M0.333333333,0 L3,3" id="Fill-21" fill="#010101"></path>
                        <path d="M0.333333333,0 L3,3" id="Stroke-23" stroke="#3A3939" stroke-width="1.5" stroke-linecap="round"></path>
                    </g>
                    <g id="Group-32" transform="translate(34.465405, 16.518059) rotate(-2.000000) translate(-34.465405, -16.518059) translate(32.965405, 15.018059)" stroke="#3A3939" stroke-linecap="round" stroke-width="1.5">
                        <path d="M0,0 L2.13146258,2.51684058" id="Stroke-31"></path>
                    </g>
                    <g id="Group-36" transform="translate(38.000000, 21.000000)">
                        <path d="M1,1 L3,3" id="Fill-33" fill="#010101"></path>
                        <path d="M0.0386527608,0.0342141771 L2.03865276,2.28421418" id="Stroke-35" stroke="#3A3939" stroke-width="1.5" stroke-linecap="round" transform="translate(1.038653, 1.159214) rotate(-2.000000) translate(-1.038653, -1.159214) "></path>
                    </g>
                    <g id="Group-40" transform="translate(25.000000, 17.000000)">
                        <path d="M0.8364,0.4614 L1.8744,1.4994" id="Fill-37" fill="#010101"></path>
                        <path d="M2,1 L3.038,2.038" id="Stroke-39" stroke="#3A3939" stroke-width="1.5" stroke-linecap="round"></path>
                    </g>
                    <g id="Group-44" transform="translate(31.000000, 22.000000)">
                        <path d="M0.375,1 L2.625,3.25" id="Fill-41" fill="#010101"></path>
                        <path d="M0,0 L2.25,2.25" id="Stroke-43" stroke="#3A3939" stroke-width="1.5" stroke-linecap="round"></path>
                    </g>
                    <g id="Group-48" transform="translate(37.000000, 28.000000)">
                        <path d="M0.03125,0.65625 L1.53125,2.15625" id="Fill-45" fill="#010101"></path>
                        <path d="M0,0 L1.5,1.5" id="Stroke-47" stroke="#3A3939" stroke-width="1.5" stroke-linecap="round"></path>
                    </g>
                    <g id="Group-52" transform="translate(23.000000, 23.000000)">
                        <path d="M0.333333333,0 L3,3" id="Fill-49" fill="#010101"></path>
                        <path d="M0.333333333,0 L3,3" id="Stroke-51" stroke="#3A3939" stroke-width="1.5" stroke-linecap="round"></path>
                    </g>
                    <g id="Group-56" transform="translate(29.000000, 29.000000)">
                        <path d="M0.333333333,0 L3,3" id="Fill-53" fill="#010101"></path>
                        <path d="M0.333333333,0 L1.66666667,1.5" id="Stroke-55" stroke="#3A3939" stroke-width="1.5" stroke-linecap="round"></path>
                    </g>
                    <g id="Group-60" transform="translate(33.000000, 33.000000)">
                        <path d="M2.33333333,1 L5,4" id="Fill-57" fill="#010101"></path>
                        <path d="M0.5,0.5 L3.5,3.5" id="Stroke-59" stroke="#3A3939" stroke-width="1.5" stroke-linecap="round"></path>
                    </g>
                    <g id="Group-64" transform="translate(19.000000, 27.000000)">
                        <path d="M0.9126,0.0279 L2.0721,1.3119" id="Fill-61" fill="#010101"></path>
                        <path d="M0.9126,0.0279 L2.0721,1.3119" id="Stroke-63" stroke="#3A3939" stroke-width="1.5" stroke-linecap="round"></path>
                    </g>
                    <g id="Group-68" transform="translate(23.000000, 31.000000)">
                        <path d="M0.368533333,0.21825 L2.8952,2.8445" id="Fill-65" fill="#010101"></path>
                        <path d="M0.368533333,0.21825 L2.8952,2.8445" id="Stroke-67" stroke="#3A3939" stroke-width="1.5" stroke-linecap="round"></path>
                    </g>
                    <g id="Group-72" transform="translate(29.000000, 37.000000)">
                        <path d="M0.0996,0.2622 L1.5201,1.8372" id="Fill-69" fill="#010101"></path>
                        <path d="M0.0996,0.2622 L1.5201,1.8372" id="Stroke-71" stroke="#3A3939" stroke-width="1.5" stroke-linecap="round"></path>
                    </g>
                    <path d="M37.51226,7.85846295 C31.7470871,1.86073503 22.5842491,1.34531567 17.0415266,6.70673978 C11.498804,12.0668355 11.680207,21.2739788 17.4440559,27.2703783 L37.51226,7.85846295 Z" id="Stroke-1" stroke="#3A3939" stroke-width="2" stroke-linecap="round" stroke-linejoin="round" transform="translate(25.256130, 15.135189) rotate(-1.000000) translate(-25.256130, -15.135189) "></path>
                </g>
            </g>
        </g>
    </g>
</svg>
